X: 9216
T: Dan Breen's
R: reel
M: 4/4
K: Adorian
Bd|:e2 dB ABAG|EAAG A2 Bd|e2 dB ABAG|EGGF G2 Bd:|
|:e3 g edBd|e A3 eABd|e3 g edBA|(3Bcd ef g2 fg:|

